X: 33133
T: Princess Florence's
R: jig
M: 6/8
K: Cmajor
|:G|c2 G cec|d2 G def|edc GAB|cGE CEG|
c2 G cec|d2 G dd/e/f|edc G2 B|c3 c2:|
|:g|f2 c fag|e2 c Gec|d2 B GG/A/B|cBc ee/f/g|
fcA f2 a|ecG e2 c|dBG GAB|c3 c2:|

